src/pos-icons/graph.svg

<svg height="24" viewBox="0 0 24 24" width="24" xmlns="http://www.w3.org/2000/svg"><path d="m19.5 17c-.13 0-.26 0-.39.04l-1.61-3.25c.45-.45.75-1.08.75-1.79 0-1.38-1.12-2.5-2.5-2.5-.13 0-.25 0-.39.04l-1.63-3.25c.48-.45.77-1.08.77-1.79 0-1.38-1.12-2.5-2.5-2.5s-2.5 1.12-2.5 2.5c0 .71.29 1.34.76 1.79l-1.62 3.25c-.14-.04-.26-.04-.39-.04-1.38 0-2.5 1.12-2.5 2.5 0 .71.3 1.34.75 1.79l-1.61 3.25c-.13-.04-.26-.04-.39-.04-1.38 0-2.5 1.12-2.5 2.5s1.12 2.5 2.5 2.5 2.5-1.12 2.5-2.5c0-.7-.29-1.34-.76-1.79l1.62-3.25c.14.04.26.04.39.04s.25 0 .39-.04l1.63 3.25c-.47.45-.77 1.09-.77 1.79 0 1.38 1.12 2.5 2.5 2.5s2.5-1.12 2.5-2.5-1.12-2.5-2.5-2.5c-.13 0-.26 0-.39.04l-1.61-3.25c.46-.45.75-1.08.75-1.79s-.29-1.34-.75-1.79l1.61-3.25c.13.04.26.04.39.04s.26 0 .39-.04l1.61 3.25c-.45.45-.75 1.09-.75 1.79 0 1.38 1.12 2.5 2.5 2.5.13 0 .25 0 .39-.04l1.63 3.25c-.47.45-.77 1.09-.77 1.79 0 1.38 1.12 2.5 2.5 2.5s2.5-1.12 2.5-2.5-1.12-2.5-2.5-2.5z"/></svg>

<?xml version="1.0" encoding="UTF-8"?><!DOCTYPE svg PUBLIC "-//W3C//DTD SVG 1.1//EN" "http://www.w3.org/Graphics/SVG/1.1/DTD/svg11.dtd"><svg xmlns="http://www.w3.org/2000/svg" xmlns:xlink="http://www.w3.org/1999/xlink" version="1.1" id="mdi-graph" width="24" height="24" viewBox="0 0 24 24"><path d="M19.5 17C19.37 17 19.24 17 19.11 17.04L17.5 13.79C17.95 13.34 18.25 12.71 18.25 12C18.25 10.62 17.13 9.5 15.75 9.5C15.62 9.5 15.5 9.5 15.36 9.54L13.73 6.29C14.21 5.84 14.5 5.21 14.5 4.5C14.5 3.12 13.38 2 12 2S9.5 3.12 9.5 4.5C9.5 5.21 9.79 5.84 10.26 6.29L8.64 9.54C8.5 9.5 8.38 9.5 8.25 9.5C6.87 9.5 5.75 10.62 5.75 12C5.75 12.71 6.05 13.34 6.5 13.79L4.89 17.04C4.76 17 4.63 17 4.5 17C3.12 17 2 18.12 2 19.5C2 20.88 3.12 22 4.5 22S7 20.88 7 19.5C7 18.8 6.71 18.16 6.24 17.71L7.86 14.46C8 14.5 8.12 14.5 8.25 14.5C8.38 14.5 8.5 14.5 8.64 14.46L10.27 17.71C9.8 18.16 9.5 18.8 9.5 19.5C9.5 20.88 10.62 22 12 22S14.5 20.88 14.5 19.5C14.5 18.12 13.38 17 12 17C11.87 17 11.74 17 11.61 17.04L10 13.79C10.46 13.34 10.75 12.71 10.75 12S10.46 10.66 10 10.21L11.61 6.96C11.74 7 11.87 7 12 7S12.26 7 12.39 6.96L14 10.21C13.55 10.66 13.25 11.3 13.25 12C13.25 13.38 14.37 14.5 15.75 14.5C15.88 14.5 16 14.5 16.14 14.46L17.77 17.71C17.3 18.16 17 18.8 17 19.5C17 20.88 18.12 22 19.5 22S22 20.88 22 19.5C22 18.12 20.88 17 19.5 17Z" /></svg>
